X: 309
T: Baxian qinghe
L: 1/8
M: 4/4
K: C
e2e g2<e2A [I:setbarnb 1]| 
e2e gd2A2 | 
c2>E2G3A | 
c> d B AG4 | 
g2e2d2e2 | 
G2>A2 cc2d | 
e2>G2 e d B A | 
G8 |]

@@@ Tune index: 9183
